latex_in_markdown/.watch-latex-md-images/93c6f2fea9492317a03dbd3b97d5a812.svg

<ns0:svg xmlns:ns0="http://www.w3.org/2000/svg" xmlns:ns1="http://www.w3.org/1999/xlink" height="20.4193pt" version="1.1" viewBox="23.686 60.2371 105.102 20.4193" width="105.102pt" watch_lated_md:baseline="5.936599999999991" xmlns:watch_lated_md="https://github.com/Quansight/pearu-sandbox/latex_in_markdown/">
<ns0:defs>
<ns0:path d="m11.345 -3.95955c0.292662 0 0.60254 0 0.60254 -0.344309s-0.309878 -0.344309 -0.60254 -0.344309h-9.31355c-0.292662 0 -0.60254 0 -0.60254 0.344309s0.309878 0.344309 0.60254 0.344309h9.31355z" id="g0-0" />
<ns0:path d="m8.16012 -7.0239c-0.550894 0.103293 -0.757479 0.516463 -0.757479 0.843557c0 0.413171 0.327093 0.550894 0.56811 0.550894c0.516463 0 0.877987 -0.447601 0.877987 -0.912418c0 -0.723049 -0.826341 -1.05014 -1.54939 -1.05014c-1.05014 0 -1.63547 1.03293 -1.79041 1.36002c-0.395955 -1.29116 -1.46331 -1.36002 -1.77319 -1.36002c-1.75597 0 -2.68561 2.25522 -2.68561 2.63396c0 0.0688618 0.0688618 0.154939 0.18937 0.154939c0.137724 0 0.172154 -0.103293 0.206585 -0.172154c0.585325 -1.91091 1.73876 -2.27244 2.23801 -2.27244c0.774695 0 0.929634 0.723049 0.929634 1.13622c0 0.37874 -0.103293 0.774695 -0.309878 1.60104l-0.585325 2.35852c-0.258232 1.03293 -0.757479 1.97978 -1.6699 1.97978c-0.0860772 0 -0.516463 0 -0.877987 -0.223801c0.619756 -0.120508 0.757479 -0.636971 0.757479 -0.843557c0 -0.344309 -0.258232 -0.550894 -0.585325 -0.550894c-0.413171 0 -0.860772 0.361524 -0.860772 0.912418c0 0.723049 0.809126 1.05014 1.54939 1.05014c0.826341 0 1.41167 -0.654187 1.77319 -1.36002c0.275447 1.01571 1.13622 1.36002 1.77319 1.36002c1.75597 0 2.68561 -2.25522 2.68561 -2.63396c0 -0.0860772 -0.0688618 -0.154939 -0.172154 -0.154939c-0.154939 0 -0.172154 0.0860772 -0.223801 0.223801c-0.464817 1.51496 -1.46331 2.22079 -2.23801 2.22079c-0.60254 0 -0.929634 -0.447601 -0.929634 -1.15343c0 -0.37874 0.0688618 -0.654187 0.344309 -1.79041l0.60254 -2.3413c0.258232 -1.03293 0.843557 -1.79041 1.63547 -1.79041c0.0344309 0 0.516463 0 0.877987 0.223801z" id="g1-120" />
<ns0:path d="m4.52766 1.92813c-0.464817 0.654187 -1.13622 1.23951 -1.97978 1.23951c-0.206585 0 -1.03293 -0.0344309 -1.29116 -0.826341c0.0516463 0.0172154 0.137724 0.0172154 0.172154 0.0172154c0.516463 0 0.860772 -0.447601 0.860772 -0.843557s-0.327093 -0.533679 -0.585325 -0.533679c-0.275447 0 -0.877987 0.206585 -0.877987 1.05014c0 0.877987 0.740264 1.48053 1.72154 1.48053c1.72154 0 3.4603 -1.58382 3.94234 -3.49473l1.68711 -6.71402c0.0172154 -0.0860772 0.0516463 -0.18937 0.0516463 -0.292662c0 -0.258232 -0.206585 -0.430386 -0.464817 -0.430386c-0.154939 0 -0.516463 0.0688618 -0.654187 0.585325l-1.27394 5.06134c-0.0860772 0.309878 -0.0860772 0.344309 -0.223801 0.533679c-0.344309 0.482032 -0.912418 1.06736 -1.73876 1.06736c-0.964065 0 -1.05014 -0.946849 -1.05014 -1.41167c0 -0.98128 0.464817 -2.30687 0.929634 -3.54638c0.18937 -0.499248 0.292662 -0.740264 0.292662 -1.08457c0 -0.723049 -0.516463 -1.37724 -1.36002 -1.37724c-1.58382 0 -2.22079 2.49624 -2.22079 2.63396c0 0.0688618 0.0688618 0.154939 0.18937 0.154939c0.154939 0 0.172154 -0.0688618 0.241016 -0.309878c0.413171 -1.4461 1.06736 -2.13471 1.73876 -2.13471c0.154939 0 0.447601 0 0.447601 0.56811c0 0.447601 -0.18937 0.946849 -0.447601 1.60104c-0.843557 2.25522 -0.843557 2.82333 -0.843557 3.2365c0 1.63547 1.17065 2.01421 2.03142 2.01421c0.499248 0 1.119 -0.154939 1.72154 -0.79191l0.0172154 0.0172154c-0.258232 1.01571 -0.430386 1.68711 -1.03293 2.53067z" id="g1-121" />
<ns0:path d="m3.44309 -7.66326c0 -0.274969 0 -0.286924 -0.239103 -0.286924c-0.286924 0.32279 -0.884682 0.765131 -2.11606 0.765131v0.3467c0.274969 0 0.872727 0 1.53026 -0.310834v6.22864c0 0.430386 -0.0358655 0.573848 -1.08792 0.573848h-0.37061v0.3467c0.32279 -0.0239103 1.48244 -0.0239103 1.87696 -0.0239103s1.54222 0 1.86501 0.0239103v-0.3467h-0.37061c-1.05205 0 -1.08792 -0.143462 -1.08792 -0.573848v-6.74271z" id="g2-49" />
<ns0:path d="m4.31582 -7.78281c0 -0.227148 0 -0.286924 -0.167372 -0.286924c-0.0956413 0 -0.131507 0 -0.227148 0.143462l-3.59851 5.58306v0.3467h3.14421v1.08792c0 0.442341 -0.0239103 0.561893 -0.896638 0.561893h-0.239103v0.3467c0.274969 -0.0239103 1.21943 -0.0239103 1.55417 -0.0239103s1.29116 0 1.56613 0.0239103v-0.3467h-0.239103c-0.860772 0 -0.896638 -0.119552 -0.896638 -0.561893v-1.08792h1.20747v-0.3467h-1.20747v-5.4396zm-0.789041 0.932503v4.5071h-2.90511l2.90511 -4.5071z" id="g2-52" />
<ns0:path d="m1.53026 -6.85031c0.514072 0.167372 0.932503 0.179328 1.06401 0.179328c1.35093 0 2.21171 -0.992279 2.21171 -1.15965c0 -0.0478207 -0.0239103 -0.107597 -0.0956413 -0.107597c-0.0239103 0 -0.0478207 0 -0.155417 0.0478207c-0.669489 0.286924 -1.24334 0.32279 -1.55417 0.32279c-0.789041 0 -1.35093 -0.239103 -1.57808 -0.334745c-0.0836862 -0.0358655 -0.107597 -0.0358655 -0.119552 -0.0358655c-0.0956413 0 -0.0956413 0.071731 -0.0956413 0.263014v3.55068c0 0.215193 0 0.286924 0.143462 0.286924c0.0597758 0 0.071731 -0.0119552 0.191283 -0.155417c0.334745 -0.490162 0.896638 -0.777086 1.4944 -0.777086c0.633624 0 0.944458 0.585803 1.0401 0.789041c0.203238 0.466252 0.215193 1.05205 0.215193 1.50635s0 1.13574 -0.334745 1.67372c-0.263014 0.430386 -0.729265 0.729265 -1.25529 0.729265c-0.789041 0 -1.56613 -0.537983 -1.78132 -1.41071c0.0597758 0.0239103 0.131507 0.0358655 0.191283 0.0358655c0.203238 0 0.526027 -0.119552 0.526027 -0.526027c0 -0.334745 -0.227148 -0.526027 -0.526027 -0.526027c-0.215193 0 -0.526027 0.107597 -0.526027 0.573848c0 1.01619 0.812951 2.17584 2.13998 2.17584c1.35093 0 2.5345 -1.13574 2.5345 -2.65405c0 -1.42267 -0.956413 -2.60623 -2.21171 -2.60623c-0.681445 0 -1.20747 0.298879 -1.51831 0.633624v-2.47472z" id="g2-53" />
<ns0:path d="m4.37559 -3.47895c0 2.82142 -1.25529 3.40722 -1.9726 3.40722c-0.286924 0 -0.920548 -0.0358655 -1.21943 -0.454296h0.071731c0.0836862 0.0239103 0.514072 -0.0478207 0.514072 -0.490162c0 -0.263014 -0.179328 -0.490162 -0.490162 -0.490162s-0.502117 0.203238 -0.502117 0.514072c0 0.74122 0.597758 1.24334 1.63786 1.24334c1.4944 0 2.94097 -1.59004 2.94097 -4.18431c0 -3.21594 -1.33898 -4.01694 -2.39103 -4.01694c-1.31507 0 -2.47472 1.09988 -2.47472 2.67796s1.11183 2.65405 2.30735 2.65405c0.884682 0 1.33898 -0.645579 1.57808 -1.25529v0.394521zm-1.53026 0.621669c-0.753176 0 -1.07597 -0.609714 -1.18356 -0.836862c-0.191283 -0.454296 -0.191283 -1.02814 -0.191283 -1.56613c0 -0.669489 0 -1.24334 0.310834 -1.7335c0.215193 -0.32279 0.537983 -0.669489 1.18356 -0.669489c0.681445 0 1.02814 0.597758 1.1477 0.872727c0.239103 0.585803 0.239103 1.60199 0.239103 1.78132c0 1.00423 -0.454296 2.15193 -1.50635 2.15193z" id="g2-57" />
<ns0:path d="m6.49022 -3.99398h4.56209c0.241016 0 0.533679 0 0.533679 -0.292662c0 -0.309878 -0.275447 -0.309878 -0.533679 -0.309878h-4.56209v-4.56209c0 -0.241016 0 -0.533679 -0.292662 -0.533679c-0.309878 0 -0.309878 0.275447 -0.309878 0.533679v4.56209h-4.56209c-0.241016 0 -0.533679 0 -0.533679 0.292662c0 0.309878 0.275447 0.309878 0.533679 0.309878h4.56209v4.56209c0 0.241016 0 0.533679 0.292662 0.533679c0.309878 0 0.309878 -0.275447 0.309878 -0.533679v-4.56209z" id="g3-43" />
<ns0:path d="m2.85776 -0.705833c0 -0.430386 -0.344309 -0.705833 -0.705833 -0.705833c-0.344309 0 -0.705833 0.275447 -0.705833 0.705833s0.344309 0.705833 0.705833 0.705833c0.344309 0 0.705833 -0.275447 0.705833 -0.705833z" id="g3-46" />
<ns0:path d="m11.0695 -5.52616c0.258232 0 0.516463 0 0.516463 -0.292662c0 -0.309878 -0.292662 -0.309878 -0.585325 -0.309878h-9.62343c-0.292662 0 -0.585325 0 -0.585325 0.309878c0 0.292662 0.258232 0.292662 0.516463 0.292662h9.76115zm-0.0688618 3.06435c0.292662 0 0.585325 0 0.585325 -0.309878c0 -0.292662 -0.258232 -0.292662 -0.516463 -0.292662h-9.76115c-0.258232 0 -0.516463 0 -0.516463 0.292662c0 0.309878 0.292662 0.309878 0.585325 0.309878h9.62343z" id="g3-61" />
</ns0:defs>
<ns0:g id="page1">
<ns0:use x="27.9837" ns1:href="#g1-121" y="74.7198" />
<ns0:use x="41.6025" ns1:href="#g3-61" y="74.7198" />
<ns0:use x="58.7768" ns1:href="#g0-0" y="74.7198" />
<ns0:use x="73.3622" ns1:href="#g2-49" y="67.9415" />
<ns0:use x="79.2152" ns1:href="#g2-53" y="67.9415" />
<ns0:rect height="0.688595" width="11.706" x="73.3622" y="70.0716" />
<ns0:use x="76.2887" ns1:href="#g2-52" y="80.6564" />
<ns0:use x="86.2637" ns1:href="#g1-120" y="74.7198" />
<ns0:use x="99.6683" ns1:href="#g3-43" y="74.7198" />
<ns0:use x="117.082" ns1:href="#g2-52" y="67.9415" />
<ns0:use x="122.935" ns1:href="#g2-57" y="67.9415" />
<ns0:rect height="0.688595" width="11.706" x="117.082" y="70.0716" />
<ns0:use x="120.008" ns1:href="#g2-52" y="80.6564" />
</ns0:g>
</ns0:svg>

<ns0:svg xmlns:ns0="http://www.w3.org/2000/svg" xmlns:ns1="http://www.w3.org/1999/xlink" height="20.4193pt" version="1.1" viewBox="23.686 60.2371 105.102 20.4193" width="105.102pt" watch_lated_md:baseline="5.936599999999991" xmlns:watch_lated_md="https://github.com/Quansight/pearu-sandbox/latex_in_markdown/">
<ns0:defs>
<ns0:path d="M11.345 -3.95955C11.6376 -3.95955 11.9475 -3.95955 11.9475 -4.30386S11.6376 -4.64817 11.345 -4.64817H2.03142C1.73876 -4.64817 1.42888 -4.64817 1.42888 -4.30386S1.73876 -3.95955 2.03142 -3.95955H11.345Z" id="g0-0" />
<ns0:path d="M8.16012 -7.0239C7.60922 -6.92061 7.40264 -6.50744 7.40264 -6.18034C7.40264 -5.76717 7.72973 -5.62945 7.97075 -5.62945C8.48721 -5.62945 8.84874 -6.07705 8.84874 -6.54187C8.84874 -7.26492 8.0224 -7.59201 7.29935 -7.59201C6.24921 -7.59201 5.66388 -6.55908 5.50894 -6.23199C5.11299 -7.52315 4.04563 -7.59201 3.73575 -7.59201C1.97978 -7.59201 1.05014 -5.33679 1.05014 -4.95805C1.05014 -4.88919 1.119 -4.80311 1.23951 -4.80311C1.37724 -4.80311 1.41167 -4.9064 1.4461 -4.97526C2.03142 -6.88618 3.18486 -7.2477 3.6841 -7.2477C4.4588 -7.2477 4.61374 -6.52465 4.61374 -6.11148C4.61374 -5.73274 4.51045 -5.33679 4.30386 -4.51045L3.71854 -2.15193C3.4603 -1.119 2.96106 -0.172154 2.04864 -0.172154C1.96256 -0.172154 1.53217 -0.172154 1.17065 -0.395955C1.79041 -0.516463 1.92813 -1.03293 1.92813 -1.23951C1.92813 -1.58382 1.6699 -1.79041 1.3428 -1.79041C0.929634 -1.79041 0.482032 -1.42888 0.482032 -0.877987C0.482032 -0.154939 1.29116 0.172154 2.03142 0.172154C2.85776 0.172154 3.44309 -0.482032 3.80461 -1.18787C4.08006 -0.172154 4.94083 0.172154 5.5778 0.172154C7.33378 0.172154 8.26341 -2.08307 8.26341 -2.46181C8.26341 -2.54789 8.19455 -2.61675 8.09126 -2.61675C7.93632 -2.61675 7.9191 -2.53067 7.86746 -2.39295C7.40264 -0.877987 6.40414 -0.172154 5.62945 -0.172154C5.02691 -0.172154 4.69982 -0.619756 4.69982 -1.32559C4.69982 -1.70433 4.76868 -1.97978 5.04412 -3.11599L5.64666 -5.45729C5.9049 -6.49022 6.49022 -7.2477 7.28213 -7.2477C7.31656 -7.2477 7.79859 -7.2477 8.16012 -7.0239Z" id="g1-120" />
<ns0:path d="M4.52766 1.92813C4.06284 2.58232 3.39144 3.16764 2.54789 3.16764C2.3413 3.16764 1.51496 3.13321 1.25673 2.3413C1.30837 2.35852 1.39445 2.35852 1.42888 2.35852C1.94534 2.35852 2.28965 1.91091 2.28965 1.51496S1.96256 0.98128 1.70433 0.98128C1.42888 0.98128 0.826341 1.18787 0.826341 2.03142C0.826341 2.90941 1.56661 3.51195 2.54789 3.51195C4.26943 3.51195 6.00819 1.92813 6.49022 0.0172154L8.17733 -6.69681C8.19455 -6.78288 8.22898 -6.88618 8.22898 -6.98947C8.22898 -7.2477 8.0224 -7.41986 7.76416 -7.41986C7.60922 -7.41986 7.2477 -7.35099 7.10998 -6.83453L5.83603 -1.77319C5.74996 -1.46331 5.74996 -1.42888 5.61223 -1.23951C5.26792 -0.757479 4.69982 -0.172154 3.87347 -0.172154C2.90941 -0.172154 2.82333 -1.119 2.82333 -1.58382C2.82333 -2.5651 3.28815 -3.89069 3.75297 -5.1302C3.94234 -5.62945 4.04563 -5.87047 4.04563 -6.21477C4.04563 -6.93782 3.52917 -7.59201 2.68561 -7.59201C1.10179 -7.59201 0.464817 -5.09577 0.464817 -4.95805C0.464817 -4.88919 0.533679 -4.80311 0.654187 -4.80311C0.809126 -4.80311 0.826341 -4.87197 0.895203 -5.11299C1.30837 -6.55908 1.96256 -7.2477 2.63396 -7.2477C2.7889 -7.2477 3.08156 -7.2477 3.08156 -6.67959C3.08156 -6.23199 2.89219 -5.73274 2.63396 -5.07856C1.79041 -2.82333 1.79041 -2.25522 1.79041 -1.84205C1.79041 -0.206585 2.96106 0.172154 3.82183 0.172154C4.32108 0.172154 4.94083 0.0172154 5.54337 -0.619756L5.56059 -0.60254C5.30236 0.413171 5.1302 1.08457 4.52766 1.92813Z" id="g1-121" />
<ns0:path d="M3.44309 -7.66326C3.44309 -7.93823 3.44309 -7.95019 3.20399 -7.95019C2.91706 -7.6274 2.3193 -7.18506 1.08792 -7.18506V-6.83836C1.36289 -6.83836 1.96065 -6.83836 2.61818 -7.14919V-0.920548C2.61818 -0.490162 2.58232 -0.3467 1.53026 -0.3467H1.15965V0C1.48244 -0.0239103 2.64209 -0.0239103 3.03661 -0.0239103S4.57883 -0.0239103 4.90162 0V-0.3467H4.53101C3.47895 -0.3467 3.44309 -0.490162 3.44309 -0.920548V-7.66326Z" id="g2-49" />
<ns0:path d="M4.31582 -7.78281C4.31582 -8.00996 4.31582 -8.06974 4.14844 -8.06974C4.0528 -8.06974 4.01694 -8.06974 3.9213 -7.92628L0.32279 -2.34321V-1.99651H3.467V-0.908593C3.467 -0.466252 3.44309 -0.3467 2.57036 -0.3467H2.33126V0C2.60623 -0.0239103 3.55068 -0.0239103 3.88543 -0.0239103S5.17659 -0.0239103 5.45156 0V-0.3467H5.21245C4.35168 -0.3467 4.31582 -0.466252 4.31582 -0.908593V-1.99651H5.52329V-2.34321H4.31582V-7.78281ZM3.52677 -6.85031V-2.34321H0.621669L3.52677 -6.85031Z" id="g2-52" />
<ns0:path d="M1.53026 -6.85031C2.04433 -6.68294 2.46276 -6.67098 2.59427 -6.67098C3.94521 -6.67098 4.80598 -7.66326 4.80598 -7.83064C4.80598 -7.87846 4.78207 -7.93823 4.71034 -7.93823C4.68643 -7.93823 4.66252 -7.93823 4.55492 -7.89041C3.88543 -7.60349 3.31158 -7.56762 3.00075 -7.56762C2.21171 -7.56762 1.64981 -7.80672 1.42267 -7.90237C1.33898 -7.93823 1.31507 -7.93823 1.30311 -7.93823C1.20747 -7.93823 1.20747 -7.8665 1.20747 -7.67522V-4.12453C1.20747 -3.90934 1.20747 -3.83761 1.35093 -3.83761C1.41071 -3.83761 1.42267 -3.84956 1.54222 -3.99303C1.87696 -4.48319 2.43885 -4.77011 3.03661 -4.77011C3.67024 -4.77011 3.98107 -4.18431 4.07671 -3.98107C4.27995 -3.51482 4.29191 -2.92902 4.29191 -2.47472S4.29191 -1.33898 3.95716 -0.800996C3.69415 -0.37061 3.2279 -0.071731 2.70187 -0.071731C1.91283 -0.071731 1.13574 -0.609714 0.920548 -1.48244C0.980324 -1.45853 1.05205 -1.44658 1.11183 -1.44658C1.31507 -1.44658 1.63786 -1.56613 1.63786 -1.9726C1.63786 -2.30735 1.41071 -2.49863 1.11183 -2.49863C0.896638 -2.49863 0.585803 -2.39103 0.585803 -1.92478C0.585803 -0.908593 1.39875 0.251059 2.72578 0.251059C4.07671 0.251059 5.26027 -0.884682 5.26027 -2.40299C5.26027 -3.82565 4.30386 -5.00922 3.04857 -5.00922C2.36712 -5.00922 1.8411 -4.71034 1.53026 -4.37559V-6.85031Z" id="g2-53" />
<ns0:path d="M4.37559 -3.47895C4.37559 -0.657534 3.1203 -0.071731 2.40299 -0.071731C2.11606 -0.071731 1.48244 -0.107597 1.18356 -0.526027H1.25529C1.33898 -0.502117 1.76936 -0.573848 1.76936 -1.01619C1.76936 -1.2792 1.59004 -1.50635 1.2792 -1.50635S0.777086 -1.30311 0.777086 -0.992279C0.777086 -0.251059 1.37484 0.251059 2.41494 0.251059C3.90934 0.251059 5.35592 -1.33898 5.35592 -3.93325C5.35592 -7.14919 4.01694 -7.95019 2.96488 -7.95019C1.64981 -7.95019 0.490162 -6.85031 0.490162 -5.27223S1.60199 -2.61818 2.79751 -2.61818C3.68219 -2.61818 4.13649 -3.26376 4.37559 -3.87347V-3.47895ZM2.84533 -2.85729C2.09215 -2.85729 1.76936 -3.467 1.66177 -3.69415C1.47049 -4.14844 1.47049 -4.72229 1.47049 -5.26027C1.47049 -5.92976 1.47049 -6.50361 1.78132 -6.99377C1.99651 -7.31656 2.3193 -7.66326 2.96488 -7.66326C3.64633 -7.66326 3.99303 -7.0655 4.11258 -6.79054C4.35168 -6.20473 4.35168 -5.18854 4.35168 -5.00922C4.35168 -4.00498 3.89738 -2.85729 2.84533 -2.85729Z" id="g2-57" />
<ns0:path d="M6.49022 -3.99398H11.0523C11.2933 -3.99398 11.586 -3.99398 11.586 -4.28664C11.586 -4.59652 11.3105 -4.59652 11.0523 -4.59652H6.49022V-9.15861C6.49022 -9.39963 6.49022 -9.69229 6.19756 -9.69229C5.88768 -9.69229 5.88768 -9.41685 5.88768 -9.15861V-4.59652H1.32559C1.08457 -4.59652 0.79191 -4.59652 0.79191 -4.30386C0.79191 -3.99398 1.06736 -3.99398 1.32559 -3.99398H5.88768V0.56811C5.88768 0.809126 5.88768 1.10179 6.18034 1.10179C6.49022 1.10179 6.49022 0.826341 6.49022 0.56811V-3.99398Z" id="g3-43" />
<ns0:path d="M2.85776 -0.705833C2.85776 -1.13622 2.51345 -1.41167 2.15193 -1.41167C1.80762 -1.41167 1.4461 -1.13622 1.4461 -0.705833S1.79041 0 2.15193 0C2.49624 0 2.85776 -0.275447 2.85776 -0.705833Z" id="g3-46" />
<ns0:path d="M11.0695 -5.52616C11.3278 -5.52616 11.586 -5.52616 11.586 -5.81882C11.586 -6.1287 11.2933 -6.1287 11.0007 -6.1287H1.37724C1.08457 -6.1287 0.79191 -6.1287 0.79191 -5.81882C0.79191 -5.52616 1.05014 -5.52616 1.30837 -5.52616H11.0695ZM11.0007 -2.46181C11.2933 -2.46181 11.586 -2.46181 11.586 -2.77169C11.586 -3.06435 11.3278 -3.06435 11.0695 -3.06435H1.30837C1.05014 -3.06435 0.79191 -3.06435 0.79191 -2.77169C0.79191 -2.46181 1.08457 -2.46181 1.37724 -2.46181H11.0007Z" id="g3-61" />
</ns0:defs>
<ns0:g id="page1">
<ns0:use x="27.9837" ns1:href="#g1-121" y="74.7198" />
<ns0:use x="41.6025" ns1:href="#g3-61" y="74.7198" />
<ns0:use x="58.7768" ns1:href="#g0-0" y="74.7198" />
<ns0:use x="73.3622" ns1:href="#g2-49" y="67.9415" />
<ns0:use x="79.2152" ns1:href="#g2-53" y="67.9415" />
<ns0:rect height="0.688595" width="11.706" x="73.3622" y="70.0716" />
<ns0:use x="76.2887" ns1:href="#g2-52" y="80.6564" />
<ns0:use x="86.2637" ns1:href="#g1-120" y="74.7198" />
<ns0:use x="99.6683" ns1:href="#g3-43" y="74.7198" />
<ns0:use x="117.082" ns1:href="#g2-52" y="67.9415" />
<ns0:use x="122.935" ns1:href="#g2-57" y="67.9415" />
<ns0:rect height="0.688595" width="11.706" x="117.082" y="70.0716" />
<ns0:use x="120.008" ns1:href="#g2-52" y="80.6564" />
</ns0:g>
</ns0:svg>
